usr/share/icons/biglinux-icons-material/22/actions/mail-replied.svg

<svg xmlns="http://www.w3.org/2000/svg" viewBox="0 0 22 22">
  <defs id="defs3051">
    <style type="text/css" id="current-color-scheme">
      .ColorScheme-Text {
        color:#dedede;
      }
      </style>
  </defs>
 <path 
    style="fill:currentColor;fill-opacity:1;stroke:none" 
    d="M 3 3 L 3 4 L 3 5 L 3 6 L 1 9 L 1 10 L 1 11.400391 L 1 12 L 2 12 L 2 11 L 2 10.400391 L 2 10 L 2.4003906 10 L 3 10 L 4.078125 10 L 11 13.996094 L 17.921875 10 L 18 10 L 19 10 L 20 10 L 20 10.400391 L 20 11 L 20 12 L 20 18 L 14 18 L 7 18 L 7 19 L 8 19 L 14 19 L 20 19 L 21 19 L 21 18 L 21 12 L 21 11.400391 L 21 9.9863281 L 21 9 L 19 6 L 19 3 L 4 3 L 3 3 z M 4 4 L 18 4 L 18 5 L 18 8.7988281 L 11 12.839844 L 4 8.7988281 L 4 5 L 4 4 z M 5 5 L 5 5.9863281 L 4.9863281 6 L 5 6 L 17 6 L 17.013672 6 L 17 5.9863281 L 17 5 L 5 5 z M 5 7 L 5 8 L 12 8 L 12 7 L 5 7 z M 4 13 L 1 16 L 4 19 L 4 17 L 6 17 L 6 15 L 4 15 L 4 13 z "
    class="ColorScheme-Text"
    />  
</svg>

<svg xmlns="http://www.w3.org/2000/svg" viewBox="0 0 22 22"><path d="M3 3v3L1 9v3h1v-2H4.078L11 13.996 17.922 10H20v8H7v1h14V9l-2-3V3H3zm1 1h14V8.799l-7 4.04L4 8.8V4zm1 1v.986L4.986 6H17.014L17 5.986V5H5zm0 2v1h7V7H5zm-1 6-3 3 3 3v-2h2v-2H4v-2z" style="fill:currentColor;fill-opacity:1;stroke:none;color:#dedede"/></svg>
